X: 669
T: Impulsive
C:David Grier
B: jims roots
M:2/4
L:1/8
Q: 1/4=100
K:C
V:1 
"G"{_d}=dfd^c y=c_BGd | "F"cAdc AF-F2 | (3{F}AcG F2 "D"D2 gf | dc_B=B "G"G2z2 |
   {_d}=dfd^c y=c_BGd | "F"cAdc AF-F2 | {F}AcGF "D"D2 gf | dc_B=B "G"G2z2 ||
   {_d}=dfd^c y=c_BGd | "F"cAdc AF-F2 | {F}AcGF "D"D2 g^f | gfdc"G" _BG-G2 |
   {_d}=dfd^c y=c_BGd | "F"cAdc AF-F2 | {F}AcGF "D"D2 gf | dc_B=B "G"G2DF ||
"Gm"GDGA _BGBd | "C"c3d c_BGF | "D"D2d2 z2g_b | "G"gfdc _BGDF |
"Gm"GDGA _Bd D^D | "C"EGcd c_BGF | "D"D2 g3f dc | "G"BAGF G2DF ||
"Gm"GDGA _BGBd | "C"c3d c_BGF | "D"DAdc d2g_b | "G"gfdc _BGDF |
"Gm"GDGA _Bd D^D | "C"EGcd c_BGF |  "D"D2g3f dc | "G"_BA G2 z4 ||
% abcbook-tune_id 6298c25d2603aba4edb1701a


% abcbook-boost 0
% abcbook-tablature 
% abcbook-transpose 
% abcbook-lastupdated 1654178398997
% abcbook-soundfonts 
% abcbook-repeats 1


